X:1
T:Title
%%score { ( 1 4 ) | ( 2 3 ) }
L:1/8
Q:1/4=150
M:6/4
K:Db
V:1 treble nm="Grand Piano"
V:4 treble 
V:2 bass 
V:3 bass 
V:1
 [F,DF]2 [EG]2 [_F=G]2 [B,_GB]2 [=FA]4 | [DFd]2 [FA]2 [FB]2 [CGc]6 | %2
w: B.~D.~Ackley * * * *||
 [CGc]2 [CE]2 [DF]2 [EG]2 [FA]2 [Ac]2 | z6 F6[K:bass] | F2 G2 =G2 A2 d2 c2 | %5
w: |||
 [EGe]2 [Fd]2 [FA]2 [B,GB]6 |[M:13/8] [C_Fc]2 [Fd]2 [FB]2 [A,=FA]2 [Af]3 [Fd]2 | %7
w: ||
[M:6/4] [CGc]2 B2 c2 [Fd]6 | [FA]2 [Fd]2 [Fe]2 [Gd]2 [EGc]4 | [CEG]2 [EGd]2 [CGc]2 [DGB]2 [DFA]4 | %10
w: |||
 [A,DF]2 [A,CG]2 [DA]2 [DAc]2 [DGB]2 [=DAB]2 | z6 z2 c4 | [Fd]2 [Ge]2 [Fd]2 [FA]2 [DF]2 [EG]2 | %13
w: |||
 [FA]2 [GB]2 [A_c]2 B6 |[M:13/8] c2 d2 B2 A2 f3 d2 |[M:6/4] [EGc]2 [EGB]2 [Gc]2 [Fd]6 |] %16
w: |||
V:2
 z2 G,2 =G,2 z2 A,4 | z2 A,2 B,2 E,6 | z2 E,2 F,2 G,2 A,2 C2 | z2 [A,F]2 [G,E]2 [F,D]6 | %4
 [F,D]2 [G,E]2[K:treble] [=G,_F]2 [A,=F]2 [DF]2 [CE]2 | z2 D2 A,2 G,,6 | %6
[M:13/8] z2 D2 B,2 z2 F3 D2 |[M:6/4] z2[K:treble] [B,G]2 [CG]2[K:bass] [D,D]6 | %8
 [D,D]2 [D,A,]2 [D,A,]2 [E,A,]2 A,4 | A,,2 A,,2 A,,2 D,2 D,4 | D,2 E,2 F,2 G,2 G,2 F,2 | %11
 [F,D]2 [E,E]2 [E,E]2[K:treble] [A,EG]2 .[A,EG]4 | [D,A,]2 [D,A,]2 [D,A,]2 [D,D]2 [D,A,]2 [D,A,]2 | %13
 [D,D]2 [D,D]2 [F,D]2[K:treble] [G,DG]6 | %14
[M:13/8] [=G,B,_F]2 [G,B,F]2 [G,DF]2 [A,D=F]2 [A,DA]3 [A,DF]2 | %15
[M:6/4][K:bass] [A,,A,]2 [A,,A,]2 [A,,A,]2 [D,A,]6 |] %16
V:3
 D,6 D,6 | D,6 z6 | A,,12 | .D,12 | D,12[K:treble] | D,6 z6 | %6
[M:13/8] =G,,-G,,-G,,- G,,3 A,,-A,,-A,,- A,,3 z |[M:6/4] [A,,E,]6[K:treble][K:bass] z6 | x12 | %9
 x12 | x12 | x6[K:treble] x6 | x12 | x6[K:treble] x6 |[M:13/8] x13 |[M:6/4][K:bass] x12 |] %16
V:4
 x12 | x12 | x12 | [B,GB]2 A2 G2 z2[K:bass] A,,2 F,,2 | x12 | x12 |[M:13/8] x13 |[M:6/4] x12 | %8
 x12 | x12 | x12 | [=Ge]2 [GB]2 [Ge]2 .d4 A,2 | x12 | x12 |[M:13/8] x13 |[M:6/4] x12 |] %16

